!!!!SEGMENT: Div2003-Magnificat_octavi_toni--Jena_20.krn
!!!id: Div2003
!!!SMS: Jena 20
!!!AGN: Motet
!!!voices: 2-4
!!!COM: Antoine Divitis
!!!OTL: Magnificat octavi toni (Jena 20)
**kern	**kern	**kern	**kern
*part4	*part3	*part2	*part1
*staff4	*staff3	*staff2	*staff1
*I"Bassus	*I"Tenor	*I"Altus	*I"Superius
*I'B	*I'T	*I'A	*I'S
*clefF4	*clefGv2	*clefGv2	*clefG2
*k[]	*k[]	*k[]	*k[]
*M2/1	*M2/1	*M2/1	*M2/1
*met(C|)	*met(C|)	*met(C|)	*met(C|)
=1	=1	=1	=1
!!section: Et exultavit
!!!OMD: Et exultavit
0r	[0G	1d	0r
.	.	2B	.
.	.	2G	.
=2	=2	=2	=2
0r	0G]	2B	0r
.	.	2c	.
.	.	2d	.
.	.	2e	.
=3	=3	=3	=3
0r	0A	2f	0r
.	.	1g	.
.	.	2f#i	.
=4	=4	=4	=4
[0C	0G	[0g	0r
=5	=5	=5	=5
0C]	1c	1g]	0r
.	[1c	1e	.
=6	=6	=6	=6
0D	2c]	0f	0r
.	4B	.	.
.	4A	.	.
.	1B	.	.
=7	=7	=7	=7
0C	1c	2e	[0g
.	.	4c	.
.	.	4d	.
.	2G	4e	.
.	.	4f	.
.	2c	[2g	.
=8	=8	=8	=8
0C	2c	2g]	0g]
.	4B	1f	.
.	4A	.	.
.	1G	.	.
.	.	2e	.
=9	=9	=9	=9
0F	1.F	1f	[0a
.	.	2r	.
.	[2D	[2f	.
=10	=10	=10	=10
0F	2D]	2f]	0a]
.	2E	1e	.
.	1F	.	.
.	.	2d	.
=11	=11	=11	=11
0r	1E	1e	1g
.	1A	2f	1cc
.	.	[2e	.
=12	=12	=12	=12
0r	0G	2e]	2cc
.	.	4d	4b
.	.	4c	4a
.	.	1d	1b
=13	=13	=13	=13
0r	1A	1c	2.cc
.	.	.	4b
.	[1c	2r	2a
.	.	2C	[2g
=14	=14	=14	=14
0r	1c]	2E	2g]
.	.	2F	4f
.	.	.	4e
.	1B	1G	1d
=15	=15	=15	=15
0r	0c	1A	1c
.	.	1F	1r
=16	=16	=16	=16
[0F	[0c	[0f	[0a
=17	=17	=17	=17
1F]	1c]	1f]	1a]
1F	1c	1f	1a
=18	=18	=18	=18
2.C	0c	2.e	2.g
4D	.	4d	4f
2E	.	4c	2g
.	.	4B	.
[2F	.	2A	[2a
=19	=19	=19	=19
2F]	0c	2.c	2a]
4E	.	.	4g
4D	.	4d	4f
1C	.	2.e	4e
.	.	.	4f
.	.	.	4g
.	.	4f	4a
=20	=20	=20	=20
0G	0d	0g	2b
.	.	.	1cc
.	.	.	2b
=21	=21	=21	=21
2.C	1c	1.e	2.cc
4D	.	.	4b
2E	1r	.	2g
[2F	.	[2d	[2a
=22	=22	=22	=22
4F]	0r	2d]	4a]
4E	.	.	4g
4D	.	1c	4f
4C	.	.	4e
1D	.	.	1f
.	.	2B	.
=23	=23	=23	=23
[0C	1r	2c	1e
.	.	2g	.
.	1c	2e	2r
.	.	[2g	2g
=24	=24	=24	=24
0C]	0c	4g]	2e
.	.	4f	.
.	.	4e	2.g
.	.	4d	.
.	.	1c	.
.	.	.	4f
.	.	.	4e
.	.	.	4d
=25	=25	=25	=25
1r	1c	2r	1c
.	.	2.c	.
[1C	[1c	.	2r
.	.	4d	.
.	.	4e	[2c
.	.	4f	.
=26	=26	=26	=26
1C]	1c]	2g	4c]
.	.	.	4d
.	.	2.c	4e
.	.	.	4f
1C	1c	.	2g
.	.	4d	.
.	.	4e	[2g
.	.	4c	.
=27	=27	=27	=27
0GG	0B	0d	4g]
.	.	.	4a
.	.	.	4b
.	.	.	4cc
.	.	.	4dd
.	.	.	4cc
.	.	.	4b
.	.	.	4a
=28	=28	=28	=28
0C	0c	0e	2g
.	.	.	1a
.	.	.	[2g
=29	=29	=29	=29
0D	0A	0d	2g]
.	.	.	4f#i
.	.	.	4e
.	.	.	1f#i
=30	=30	=30	=30
0GGl	0Gl	0Bl	0gl
=31||	=31||	=31||	=31||
*M2/1	*M2/1	*M2/1	*M2/1
*met(C|)	*met(C|)	*met(C|)	*met(C|)
!!section: Quia fecit
!!!OMD: Quia fecit
2.G	1G	0r	0r
4E	.	.	.
2F	2A	.	.
[2G	2B	.	.
=32	=32	=32	=32
2G]	2G	0r	0r
4F	1c	.	.
4E	.	.	.
1D	.	.	.
.	2B	.	.
=33	=33	=33	=33
1C	1c	2.g	1g
.	.	4e	.
1r	1r	2f	2a
.	.	[2g	2b
=34	=34	=34	=34
1r	0r	2g]	2g
.	.	4f	1cc
.	.	4e	.
2r	.	1d	.
2G	.	.	2b
=35	=35	=35	=35
2.A	1r	0c	0cc
4G	.	.	.
2F	2r	.	.
2E	2c	.	.
=36	=36	=36	=36
2D	2.d	0r	0r
2.G	.	.	.
.	4c	.	.
.	2B	.	.
4E	.	.	.
2F	2A	.	.
=37	=37	=37	=37
2G	2G	0r	0r
2C	1c	.	.
1D	.	.	.
.	2B	.	.
=38	=38	=38	=38
0C	0c	1r	1r
.	.	2r	2r
.	.	2e	2g
=39	=39	=39	=39
0r	0r	2.f	2.a
.	.	4e	4g
.	.	2d	2f
.	.	2c	2e
=40	=40	=40	=40
1r	0r	2.d	2d
.	.	.	2.g
.	.	4G	.
2r	.	2B	.
.	.	.	4e
2D	.	2A	2f
=41	=41	=41	=41
2.E	1r	0G	0g
4D	.	.	.
2C	2r	.	.
2BB	2G	.	.
=42	=42	=42	=42
2AA	2.A	0r	0r
2.D	.	.	.
.	4G	.	.
.	2F	.	.
4BB	.	.	.
2C	2E	.	.
=43	=43	=43	=43
2D	2D	0r	0r
2GG	1G	.	.
2BB	.	.	.
2AA	2F	.	.
=44	=44	=44	=44
2GG	2.G	0r	0r
1G	.	.	.
.	4A	.	.
.	4B	.	.
.	4c	.	.
4F	[2d	.	.
4E	.	.	.
=45	=45	=45	=45
4F	2d]	0r	0r
4E	.	.	.
4D	1c	.	.
4C	.	.	.
1D	.	.	.
.	2B	.	.
=46	=46	=46	=46
1C	1c	1r	1r
2r	1c	2r	2r
2C	.	2c	2g
=47	=47	=47	=47
2.F	0c	2.A	2.a
4F	.	4A	4a
2E	.	1e	2g
2C	.	.	2e
=48	=48	=48	=48
1F	0c	1A	1f
1C	.	1e	2e
.	.	.	[2g
=49	=49	=49	=49
0G	0B	0d	2g]
.	.	.	4f
.	.	.	4e
.	.	.	1d
=50	=50	=50	=50
2.C	0c	2.e	4c
.	.	.	4d
.	.	.	4e
4D	.	4d	4f
2E	.	4c	2g
.	.	4B	.
[2F	.	2A	[2a
=51	=51	=51	=51
4F]	0A	2d	2a]
4E	.	.	.
4D	.	[2d	1g
4C	.	.	.
1D	.	4d]	.
.	.	4c	.
.	.	4B	2f
.	.	4A	.
=52	=52	=52	=52
2r	0G	2.B	1g
1G	.	.	.
.	.	4c	.
.	.	2.d	[1dd
4F	.	.	.
4E	.	4e	.
=53	=53	=53	=53
2.D	1.d	1.f	2dd]
.	.	.	4cc
4E	.	.	4b
2F	.	.	2a
2G	4c	4e	2b
.	4B	4d	.
=54	=54	=54	=54
1A	0A	1c	2.cc
.	.	.	4b
1F	.	1f	[1a
=55	=55	=55	=55
1G	1B	1d	2a]
.	.	.	2g
1E	1G	1c	[1g
=56	=56	=56	=56
0D	0A	[0dl	1g]
.	.	.	1f#i
=57	=57	=57	=57
0GGl	0Gl	0d]	0gl
=58||	=58||	=58||	=58||
*M2/1	*M2/1	*M2/1	*M2/1
*met(C|)	*met(C|)	*met(C|)	*met(C|)
!!section: Fecit potentiam
!!!OMD: Fecit potentiam
0r	0r	1G	0r
.	.	1A	.
=59	=59	=59	=59
0r	0r	2G	1g
.	.	1c	.
.	.	.	1a
.	.	4B	.
.	.	4A	.
=60	=60	=60	=60
0r	0r	2B	1g
.	.	2c	.
.	.	[1F	[1cc
=61	=61	=61	=61
0r	0r	2F]	2cc]
.	.	2G	2b
.	.	2A	2a
.	.	2B	4g
.	.	.	4f
=62	=62	=62	=62
0r	0r	2.c	2.e
.	.	4d	4f
.	.	2e	2g
.	.	[2d	[2f
=63	=63	=63	=63
0r	0r	2d]	2f]
.	.	1c	2e
.	.	.	1d
.	.	2B	.
=64	=64	=64	=64
0r	0r	2.c	4c
.	.	.	4d
.	.	.	4e
.	.	4d	4f
.	.	4e	4g
.	.	4f	4f
.	.	4g	4e
.	.	4f	4d
=65	=65	=65	=65
0r	0r	4e	4c
.	.	4d	4d
.	.	4c	4e
.	.	4d	4f
.	.	2e	2g
.	.	[2f	[2a
=66	=66	=66	=66
0r	0r	4f]	4a]
.	.	4e	4g
.	.	4d	1cc
.	.	4c	.
.	.	1d	.
.	.	.	2b
=67	=67	=67	=67
0r	0r	2c	0cc
.	.	1c	.
.	.	4B	.
.	.	4A	.
=68	=68	=68	=68
0r	0r	2B	2r
.	.	2c	1g
.	.	1G	.
.	.	.	4f
.	.	.	4e
=69	=69	=69	=69
0r	0r	2r	2f
.	.	2.G	2g
.	.	.	1d
.	.	4A	.
.	.	4B	.
.	.	4c	.
=70	=70	=70	=70
0r	0r	2.d	2r
.	.	.	2.d
.	.	4e	.
.	.	1f	.
.	.	.	4e
.	.	.	4f
.	.	.	4g
=71	=71	=71	=71
0r	0r	2r	2.a
.	.	1f	.
.	.	.	4b
.	.	.	1cc
.	.	2e	.
=72	=72	=72	=72
0r	0r	2d	2b
.	.	2.f	2.a
.	.	4e	4g
.	.	[2d	2f
=73	=73	=73	=73
0r	0r	2d]	1e
.	.	2c	.
.	.	2d	2d
.	.	2G	2e
=74	=74	=74	=74
0r	0r	1B	2d
.	.	.	1g
.	.	1A	.
.	.	.	2f#i
=75	=75	=75	=75
0r	0r	2G	2.g
.	.	1g	.
.	.	.	4a
.	.	.	4b
.	.	.	4cc
.	.	2c	2a
=76	=76	=76	=76
0r	0r	1e	2g
.	.	.	1cc
.	.	1d	.
.	.	.	2b
=77	=77	=77	=77
0r	0r	1c	0cc
.	.	2r	.
.	.	2f	.
=78	=78	=78	=78
0r	0r	2e	2r
.	.	2c	2cc
.	.	2d	2b
.	.	2e	2g
=79	=79	=79	=79
0r	0r	2A	2a
.	.	1d	2.b
.	.	.	4e
.	.	2c	[2a
=80	=80	=80	=80
0r	0r	1B-X	2a]
.	.	.	2g
.	.	1A	1f
=81	=81	=81	=81
0r	0r	2r	2e
.	.	2c	2e
.	.	2c	2e
.	.	2B	2d
=82	=82	=82	=82
0r	0r	2c	2e
.	.	2A	2f
.	.	2G	2g
.	.	2e	2g
=83	=83	=83	=83
0r	0r	2e	2g
.	.	2c	2e
.	.	2d	2f
.	.	2e	2g
=84	=84	=84	=84
0r	0r	1A	2c
.	.	.	2.cc
.	.	2.f	.
.	.	.	4b
.	.	.	4a
.	.	4e	4g
=85	=85	=85	=85
0r	0r	4d	4f
.	.	4c	4e
.	.	4B	2d
.	.	4A	.
.	.	2G	2.dd
.	.	[2g	.
.	.	.	4cc
=86	=86	=86	=86
0r	0r	4g]	4b
.	.	4f	4a
.	.	4e	2.cc
.	.	4d	.
.	.	2c	.
.	.	.	4b
.	.	[2d	4a
.	.	.	4g
=87	=87	=87	=87
0r	0r	2d]	2f
.	.	4c	1g
.	.	4B	.
.	.	1A	.
.	.	.	2f#i
=88	=88	=88	=88
0r	0r	0Gl	0gl
=89||	=89||	=89||	=89||
*M2/1	*M2/1	*M2/1	*M2/1
*met(C|)	*met(C|)	*met(C|)	*met(C|)
!!section: Esurientes
!!!OMD: Esurientes
1.G	1.G	0r	0r
2F	2A	.	.
=90	=90	=90	=90
2G	2B	0r	0r
2A	2c	.	.
1F	1A	.	.
=91	=91	=91	=91
1G	1G	1.g	1.g
1r	1r	.	.
.	.	2f	2a
=92	=92	=92	=92
0r	0r	2g	2b
.	.	2a	2cc
.	.	1f	1a
=93	=93	=93	=93
1.G	1.G	1g	1g
.	.	1r	1r
2F	2A	.	.
=94	=94	=94	=94
2G	2B	0r	0r
2A	2c	.	.
1F	1A	.	.
=95	=95	=95	=95
1.G	2.G	0r	0r
.	4A	.	.
.	4B	.	.
.	4c	.	.
2F	[2d	.	.
=96	=96	=96	=96
2E	2d]	0r	0r
4D	1c	.	.
4C	.	.	.
1D	.	.	.
.	2B	.	.
=97	=97	=97	=97
1C	1c	1.g	1.g
1r	1r	.	.
.	.	2f	2a
=98	=98	=98	=98
0r	0r	2g	2b
.	.	2a	2cc
.	.	1f	1a
=99	=99	=99	=99
0r	0r	1.g	2.g
.	.	.	4a
.	.	.	4b
.	.	.	4cc
.	.	2f	[2dd
=100	=100	=100	=100
1r	0r	2e	2dd]
.	.	4d	1cc
.	.	4c	.
1G	.	1d	.
.	.	.	2b
=101	=101	=101	=101
1.A	2r	0c	0cc
.	1c	.	.
4G	4B	.	.
4F	4A	.	.
=102	=102	=102	=102
2G	2B	0r	0r
2F	1A	.	.
1D	.	.	.
.	[2d	.	.
=103	=103	=103	=103
1G	4d]	0r	0r
.	4c	.	.
.	4B	.	.
.	4A	.	.
2G	2B	.	.
[2A	[2c	.	.
=104	=104	=104	=104
4A]	2c]	1r	0r
4G	.	.	.
1G	2B	.	.
.	1A	2r	.
2F#i	.	[2c	.
=105	=105	=105	=105
1G	0G	2c]	0r
.	.	2B	.
1C	.	1c	.
=106	=106	=106	=106
1.D	0r	2B	0r
.	.	2.A	.
.	.	4G	.
2C	.	4F	.
.	.	4E	.
=107	=107	=107	=107
2BB	0r	2D	1r
4AA	.	1G	.
4GG	.	.	.
1AA	.	.	1cc
.	.	2F#i	.
=108	=108	=108	=108
2GG	0r	1G	1b
2BB	.	.	.
1AA	.	2r	1cc
.	.	2c	.
=109	=109	=109	=109
1GG	0r	1B	1dd
1r	.	1A	1cc
=110	=110	=110	=110
0r	0r	0d	2b
.	.	.	1a
.	.	.	4g
.	.	.	4f
=111	=111	=111	=111
0r	0r	2c	2e
.	.	2B	2.d
.	.	1d	.
.	.	.	4e
.	.	.	4f
.	.	.	4g
=112	=112	=112	=112
0r	1r	2c	2a
.	.	2B	1g
.	1c	1A	.
.	.	.	2f#i
=113	=113	=113	=113
1r	2.B	1G	1g
.	4c	.	.
[1F	2d	1r	1r
.	[2c	.	.
=114	=114	=114	=114
1F]	2c]	0r	0r
.	4B	.	.
.	4A	.	.
2.E	2G	.	.
.	4G	.	.
4F	4A	.	.
=115	=115	=115	=115
2G	2B	0r	0r
1F	1A	.	.
4E	4G	.	.
4D	4F	.	.
=116	=116	=116	=116
4C	4E	0r	0r
4D	4F	.	.
4E	4G	.	.
4F	4A	.	.
2G	4B	.	.
.	4c	.	.
[2F	[2d	.	.
=117	=117	=117	=117
2F]	4d]	0r	0r
.	4c	.	.
2E	1c	.	.
1D	.	.	.
.	2B	.	.
=118	=118	=118	=118
0C	0c	0r	0r
=119	=119	=119	=119
1r	1r	1r	1r
1C	1c	1e	1g
=120	=120	=120	=120
1F	1c	1f	1a
1F	1c	1f	1a
=121	=121	=121	=121
[0C	0c	[0e	[0g
=122	=122	=122	=122
0C]	1r	0e]	0g]
.	1c	.	.
=123	=123	=123	=123
1r	1.c	0A	1cc
1F	.	.	[1cc
.	2B	.	.
=124	=124	=124	=124
1.F	1A	1f	2cc]
.	.	.	2b
.	[1d	[1f	1a
2E	.	.	.
=125	=125	=125	=125
1D	2d]	2f]	1.dd
.	2c	2e	.
[1G	2B	1d	.
.	2A	.	2cc
=126	=126	=126	=126
2G]	1G	1.g	2b
2F	.	.	2a
2E	1c	.	1g
2D	.	2f	.
=127	=127	=127	=127
1C	1.c	2e	1cc
.	.	2d	.
1F	.	1c	[1cc
.	2B	.	.
=128	=128	=128	=128
1.F	1A	1f	2cc]
.	.	.	2b
.	[1d	[1f	1a
2E	.	.	.
=129	=129	=129	=129
1D	2d]	2f]	1.dd
.	2c	2e	.
[1G	2B	1d	.
.	2A	.	2cc
=130	=130	=130	=130
2G]	1B	1.g	2b
2F	.	.	2a
2E	1c	.	[1g
4D	.	4f	.
4C	.	4e	.
=131	=131	=131	=131
0D	0A	0d	2g]
.	.	.	4f#i
.	.	.	4e
.	.	.	1f#i
=132	=132	=132	=132
0GGl	0Gl	0dl	0gl
=133||	=133||	=133||	=133||
*M2/1	*M2/1	*M2/1	*M2/1
*met(C|)	*met(C|)	*met(C|)	*met(C|)
!!section: Sicut locutus
!!!OMD: Sicut locutus
0r	0G	0r	0r
=134	=134	=134	=134
0r	1A	0r	1r
.	1G	.	[1g
=135	=135	=135	=135
0r	1.c	0r	1g]
.	.	.	1a
.	4B	.	.
.	4A	.	.
=136	=136	=136	=136
0r	1B	0r	1g
.	2c	.	1cc
.	[2A	.	.
=137	=137	=137	=137
0r	2A]	0r	2cc
.	4G	.	4b
.	4F	.	4a
.	1G	.	1b
=138	=138	=138	=138
0r	2A	0r	2cc
.	1F	.	1a
.	4E	.	4g
.	4D	.	4f
=139	=139	=139	=139
0r	4C	0r	2e
.	4D	.	.
.	4E	.	1g
.	4F	.	.
.	4G	.	.
.	4A	.	.
.	4B	.	4f
.	4c	.	4e
=140	=140	=140	=140
0r	2d	0r	4f
.	.	.	4e
.	1c	.	4d
.	.	.	4c
.	.	.	1d
.	2B	.	.
=141	=141	=141	=141
0r	1.c	0r	4c
.	.	.	4d
.	.	.	4e
.	.	.	4f
.	.	.	2g
.	4B	.	[2a
.	4A	.	.
=142	=142	=142	=142
1r	2B	0r	2a]
.	2G	.	1g
1D	1A	.	.
.	.	.	2f#i
=143	=143	=143	=143
2E	2G	0r	1.g
1G	4A	.	.
.	4B	.	.
.	4c	.	.
.	[2.d	.	.
2F	.	.	[2a
=144	=144	=144	=144
2E	4d]	0r	4a]
.	4c	.	4g
2C	1c	.	2e
1D	.	.	1f
.	2B	.	.
=145	=145	=145	=145
0C	1c	0r	0e
.	2r	.	.
.	2G	.	.
=146	=146	=146	=146
2r	2A	0r	0r
2C	2c	.	.
2D	2B	.	.
[2F	[2A	.	.
=147	=147	=147	=147
2F]	2A]	0r	1r
4E	4G	.	.
4D	4F	.	.
1C	1E	.	1g
=148	=148	=148	=148
0r	2F	0r	2a
.	2A	.	2cc
.	2G	.	2b
.	[2F	.	[2a
=149	=149	=149	=149
1r	2F]	0r	2a]
.	4E	.	4g
.	4D	.	4f
1AA	2C	.	1e
.	2c	.	.
=150	=150	=150	=150
2BB	2.d	0r	2r
1D	.	.	1f
.	4c	.	.
.	4B	.	.
.	4A	.	.
4C	[2c	.	4e
4BB	.	.	4d
=151	=151	=151	=151
2C	4c]	0r	2e
.	4B	.	.
2D	1A	.	2f
1BB	.	.	1d
.	2G#i	.	.
=152	=152	=152	=152
1AA	2A	0r	4c
.	.	.	4d
.	2.E	.	4e
.	.	.	4f
1r	.	.	4g
.	4F	.	4a
.	4G	.	4b
.	4A	.	4cc
=153	=153	=153	=153
1r	2B	0r	2dd
.	2c	.	1cc
1G	1d	.	.
.	.	.	2b
=154	=154	=154	=154
2.A	2.c	0r	0cc
4G	4B	.	.
4F	4A	.	.
4E	4G	.	.
[2F	[2A	.	.
=155	=155	=155	=155
2F]	2A]	0r	0r
4E	4G	.	.
4D	4F	.	.
2C	2E	.	.
[2D	[2F	.	.
=156	=156	=156	=156
2D]	4F]	0r	0r
.	4E	.	.
1C	2E	.	.
.	1D	.	.
2BB	.	.	.
=157	=157	=157	=157
1C	1C	0r	1r
2r	2r	.	2r
[2C	[2G	.	[2cc
=158	=158	=158	=158
2C]	2G]	0r	2cc]
2AA	2A	.	2cc
1AA	1A	.	1cc
=159	=159	=159	=159
2r	2r	0r	2r
2AA	2E	.	2a
2C	2E	.	2g
2AA	2F	.	2a
=160	=160	=160	=160
2GG	2.G	0r	2b
1G	.	.	1dd
.	4A	.	.
.	2B	.	.
2A	2c	.	2cc
=161	=161	=161	=161
2G	1.d	0r	2b
4F	.	.	4a
4E	.	.	4g
2D	.	.	2f
2F	2c	.	[2a
=162	=162	=162	=162
2G	2B	0r	2a]
2E	4A	.	1g
.	4G	.	.
1D	1A	.	.
.	.	.	2f#i
=163	=163	=163	=163
2r	1G	0r	1g
2GG	.	.	.
2AA	2C	.	1r
2BB	2D	.	.
=164	=164	=164	=164
2C	2E	0r	0r
2D	2F	.	.
2BB	2G	.	.
[2C	[2A	.	.
=165	=165	=165	=165
4C]	4A]	0r	1r
4BB	4G	.	.
4AA	1G	.	.
4GG	.	.	.
1AA	.	.	1cc
.	2F#i	.	.
=166	=166	=166	=166
2GG	2.G	0r	2b
1G	.	.	1dd
.	4A	.	.
.	2B	.	.
2A	2c	.	2cc
=167	=167	=167	=167
2G	1.d	0r	2b
4F	.	.	4a
4E	.	.	4g
2D	.	.	2f
2F	2c	.	[2a
=168	=168	=168	=168
2G	2B	0r	2a]
2E	4A	.	1g
.	4G	.	.
1D	1A	.	.
.	.	.	2f#i
=169	=169	=169	=169
2GG	2.G	0r	[0gl
1G	.	.	.
.	4A	.	.
.	4B	.	.
.	4c	.	.
2G	[2d	.	.
=170	=170	=170	=170
2E	2d]	0r	0g_
2C	1c	.	.
1G	.	.	.
.	2B	.	.
=171	=171	=171	=171
1C	2c	0r	0g_
.	2G	.	.
1C	1c	.	.
=172	=172	=172	=172
0GGl	0Bl	0r	0g]
=173||	=173||	=173||	=173||
*M2/1	*M2/1	*M2/1	*M2/1
*met(C|)	*met(C|)	*met(C|)	*met(C|)
!!section: Sicut erat
!!!OMD: Sicut erat
0C	0r	0r	0r
=174	=174	=174	=174
2.D	0r	0r	0r
4C	.	.	.
[1F	.	.	.
=175	=175	=175	=175
2F]	0G	0r	0r
4E	.	.	.
4D	.	.	.
1E	.	.	.
=176	=176	=176	=176
1.F	1A	0r	0r
.	[1c	.	.
2E	.	.	.
=177	=177	=177	=177
0D	2c]	0d	0r
.	4B	.	.
.	4A	.	.
.	1B	.	.
=178	=178	=178	=178
0C	1.c	1e	0g
.	.	[1g	.
.	2B	.	.
=179	=179	=179	=179
0r	0A	2g]	2.a
.	.	4f#i	.
.	.	4e	4g
.	.	1f#i	[1cc
=180	=180	=180	=180
0GG	[0G	1g	2cc]
.	.	.	4b
.	.	.	4a
.	.	4g	1b
.	.	4f	.
.	.	4e	.
.	.	4d	.
=181	=181	=181	=181
0C	0G]	0e	0cc
=182	=182	=182	=182
1r	1r	1r	1r
[1C	[1G	[1e	[1cc
=183	=183	=183	=183
1C]	1G]	1e]	1cc]
1C	1G	1g	1cc
=184	=184	=184	=184
1F	1A	1f	1cc
1F	1A	1f	1cc
=185	=185	=185	=185
1.C	0G	[0e	0cc
4BB	.	.	.
4AA	.	.	.
=186	=186	=186	=186
0AA	0A	0e]	2r
.	.	.	1cc
.	.	.	4b
.	.	.	4a
=187	=187	=187	=187
0r	0r	2r	2b
.	.	1f	1a
.	.	4e	2dd
.	.	4d	.
=188	=188	=188	=188
0r	0r	2e	2cc
.	.	2d	1b
.	.	1g	.
.	.	.	4a
.	.	.	4g
=189	=189	=189	=189
0r	0r	2f	2a
.	.	1e	2.g
.	.	.	4a
.	.	4d	4b
.	.	4c	4cc
=190	=190	=190	=190
0r	0r	2B	2dd
.	.	2c	1cc
.	.	1d	.
.	.	.	2b
=191	=191	=191	=191
0r	2r	0c	0cc
.	1c	.	.
.	4B	.	.
.	4A	.	.
=192	=192	=192	=192
2r	2B	0r	0r
1F	2A	.	.
.	1d	.	.
4E	.	.	.
4D	.	.	.
=193	=193	=193	=193
2E	2c	0r	0r
2D	1B	.	.
1G	.	.	.
.	4A	.	.
.	4G	.	.
=194	=194	=194	=194
2F	2A	0r	0r
1E	1G	.	.
4D	4F	.	.
4C	4E	.	.
=195	=195	=195	=195
2BB	2D	0r	0r
2.C	4C	.	.
.	4D	.	.
.	4E	.	.
4D	4F	.	.
4E	2G	.	.
4F	.	.	.
=196	=196	=196	=196
2G	4C	0r	0r
.	4D	.	.
4C	4E	.	.
4D	4F	.	.
4E	4G	.	.
4F	4A	.	.
2G	4B	.	.
.	4c	.	.
=197	=197	=197	=197
2F	2d	0r	0r
2E	1c	.	.
1D	.	.	.
.	2B	.	.
=198	=198	=198	=198
*M3/1	*M3/1	*M3/1	*M3/1
*met(C|3)	*met(C|3)	*met(C|3)	*met(C|3)
0C	0c	0.r	0.r
1r	1r	.	.
=199	=199	=199	=199
1.C	0c	0e	0g
2D	.	.	.
1E	1c	1e	1g
=200	=200	=200	=200
1.F	0c	1A	1.a
.	.	1.c	.
2E	.	.	2g
1F	1c	.	1a
.	.	2d	.
=201	=201	=201	=201
0C	0c	0e	0g
1r	1r	1r	1r
=202	=202	=202	=202
1.C	0c	1.e	1.e
2D	.	2d	2f
1E	[1c	2c	1g
.	.	2B	.
=203	=203	=203	=203
1.F	1c]	1A	0a
.	0c	1r	.
2E	.	.	.
1F	.	1A	1a
=204	=204	=204	=204
1.G	0B	1G	1d
.	.	1E	1g
4F	.	.	.
4E	.	.	.
1D	1B	1F	1f
=205	=205	=205	=205
0C	1.c	1.G	1e
.	.	.	1g
.	2B	2G	.
1C	2A	2F	1a
.	2G	2E	.
=206	=206	=206	=206
1BB	0G	0D	1b
0AA	.	.	1.cc
.	1F#i	1C	.
.	.	.	2dd
=207	=207	=207	=207
[0.GG	0G	0D	1b
.	.	.	1.dd
.	[1d	[1G	.
.	.	.	2cc
=208	=208	=208	=208
1GG]	1d]	1G]	2b
.	.	.	2a
0C	0e	0E	2cc
.	.	.	2b
.	.	.	2a
.	.	.	2g
=209	=209	=209	=209
1.D	0d	1F	1f
.	.	0f	1.a
2E	.	.	.
1F	1c	.	.
.	.	.	2g
=210	=210	=210	=210
1G	1B	1.d	0g
0D	0A	.	.
.	.	2c	.
.	.	1d	1f#i
=211	=211	=211	=211
0.GGl	0.Gl	0.Bl	0.gl
==	==	==	==
*-	*-	*-	*-
!!!system-decoration: s1,s2,s3,s4
!!!RDF**kern: i = editorial accidental
!!!RDF**kern: l = terminal long
!!!ENC: Max Blistain
!!!END: 2026/03/26
!!!EED: Benjamin Ory
!!!EEV: 2026/06/15
!!!YEC: Copyright 2026 Benjamin Ory, All Rights Reserved
!!!ONB: Translated from MusicXML on 2026/06/15
!!muse2ps: C^@{COM}^i2I150v90,90,90,120c120z18l2770t130
